templates/business-template/img/screen.svg

<!-- Generated by IcoMoon.io -->
<svg version="1.1" xmlns="http://www.w3.org/2000/svg" width="24" height="24" viewBox="0 0 24 24">
<title>screen</title>
<path fill="#fe504f" d="M0 2v14h9.75l-1.75 3h8l-1.75-3h9.75v-14h-24zM22 14h-20v-10h20v10zM17 20h-10c-0.55 0-1 0.45-1 1s0.45 1 1 1h10c0.55 0 1-0.45 1-1s-0.45-1-1-1z"></path>
</svg>

<svg xmlns="http://www.w3.org/2000/svg" width="24" height="24"><path fill="#fe504f" d="M0 2v14h9.75L8 19h8l-1.75-3H24V2H0zm22 12H2V4h20v10zm-5 6H7c-.55 0-1 .45-1 1s.45 1 1 1h10c.55 0 1-.45 1-1s-.45-1-1-1z"/></svg>
